X:1
T:Christ the Theme of Song in All Ages
T:Christ the Theme of Song in All Ages
T:Arranged by William Lesley Mason, 1899
T:Anson Davies Fitz Randolph (1820-1896)
T:Public Domain Courtesy of the Cyber Hymnal™
C:Arranged by William Lesley Mason, 1899
Z:Public Domain
Z:Courtesy of the Cyber Hymnal™
%%score ( 1 2 ) ( 3 4 )
L:1/8
Q:1/4=85
M:2/4
K:Eb
V:1 treble 
V:2 treble 
V:3 bass 
V:4 bass 
V:1
 [EB]2 [Ec][Ec] | ([EB]>[EG]) E2 | [Ee]2 [Ed][Ec] | [EB]2 [=Ec]2 | [FA]2 [DB]2 | %5
w: 1.~Oh, end- less|theme * of|ne’er ceas- ing|song And|mu- sic,|
w: 2.~Christ, Son of|God, * and|Christ, Son of|man; Christ|on the|
w: 3.~Thus thro’ the|years~of * long|ag- es a-|go, Thus|in the|
w: 4.~Come, Thou and|touch~our * lips,|that we may|sing; Come|fill our|
 [EG]>[EG] [EG][E=A] | [DB]2 [C=A]2 | [B,G]4 | [FA]2 [EG][DF] | [EG]2 ([EG][FB]) | %10
w: wak- ened by su-|prem- est|love!|How hath it|broke from *|
w: cross, and Christ in|king- ly|reign.|So thro’ the|ag- es, *|
w: chang- es of these|lat- ter|days:|One on- ly|Lord, our *|
w: hearts with love to|o- ver-|flow:|Our Lord, our|life, we *|
 [Ge]>[Fd] [Ec][F=B] | ([Ec]2 [Ad]2) | [Ge]2 [Bd][Ac] | [GB]>[GB] [EB][FA] | [EG]2 ([DF]>E) | E4 |] %16
w: fee- ble lips and|strong, *|The power di-|vine, and match- less|grace to *|prove.|
w: since the song be-|gan, *|With swell- ing|hosts the saints re-|peat the *|strain.|
w: Lord, a- bove, be-|low, *|And He the|ob- ject of our|end- less *|praise.|
w: would some tri- bute|bring, *|And tell the|world how much to|Thee we *|owe.|
V:2
 x4 | x2 E2 | x4 | x4 | x4 | x4 | x4 | x4 | x4 | x4 | x4 | x4 | x4 | x4 | x7/2 E/ | E4 |] %16
V:3
 [E,G,]2 [E,A,][E,A,] | ([E,G,]>[E,G,]) [E,G,]2 | [A,,C]2 [A,,B,][A,,A,] | [E,G,]2 [C,C]2 | %4
 [F,C]2 [B,,B,]2 | [E,B,]>[E,B,] [E,G,][C,C] | [D,G,]2 [D,^F,]2 | G,4 | [B,,B,]2 [B,,B,][B,,B,] | %9
 [E,B,]2 B,2 | [C,C]>[F,A,] G,[G,,G,] | ([C,G,]2 [B,,B,]2) | [E,B,]2 [E,E][E,E] | %13
 [E,E]>[E,E] [G,B,][A,C] | B,2 ([B,,A,]>[E,G,]) | [E,G,]4 |] %16
V:4
 x4 | x4 | x4 | x4 | x4 | x4 | x4 | G,4 | x4 | x2 (E,D,) | x2 G, x | x4 | x4 | x4 | B,2 x2 | x4 |] %16

